public/img/casting-icon-4.svg

<svg width="48" height="49" viewBox="0 0 48 49" fill="none" xmlns="http://www.w3.org/2000/svg">
<path d="M47.3588 40.2374L47.3362 40.2144L47.3625 40.18L46.6913 39.6058L42.0263 35.1881C42.0263 35.1881 41.9437 35.2762 41.8088 35.4101L41.685 35.548C40.6237 36.5662 37.2075 39.5024 33.2025 39.556C33.1163 39.556 33.03 39.556 32.9475 39.556C30.8363 39.3225 28.7812 38.1664 26.7 36.0265C23.2387 32.474 19.3912 30.5484 15.2475 30.2843C15.135 30.2843 15.0187 30.2843 14.9025 30.2843C14.2791 30.2277 13.6529 30.2111 13.0275 30.2345C6.7875 30.4948 2.15251 34.767 0.577515 36.4131C0.247515 36.7309 0.0450037 36.9491 0.00375366 36.995L0.0300293 37.018L0 37.0486L0.671265 37.6266L5.34 42.0519C5.34 42.0519 5.42253 41.9639 5.55753 41.8337L5.68121 41.6959C6.74621 40.6815 10.1588 37.7453 14.1638 37.6879C14.25 37.6879 14.3362 37.6879 14.4225 37.6879C16.53 37.9252 18.585 39.0775 20.67 41.2174C24.1313 44.7699 27.975 46.6955 32.1187 46.9596C32.2312 46.9596 32.3513 46.9596 32.4638 46.9596C33.0872 47.016 33.7134 47.0326 34.3388 47.0094C40.575 46.7491 45.2138 42.4807 46.785 40.8346C47.115 40.5169 47.3213 40.2948 47.3588 40.2527" fill="url(#paint0_linear)"/>
<path d="M34.5097 12.5067C34.5089 12.767 34.4067 13.0164 34.2254 13.2005C34.0441 13.3846 33.7985 13.4883 33.5421 13.4892H14.3719C14.1153 13.4892 13.8692 13.3856 13.6877 13.2014C13.5063 13.0172 13.4043 12.7673 13.4043 12.5067V11.8672H12.1445V24.5H35.7695V11.8672H34.5097V12.5067ZM25.5545 14.7744H27.1521C27.4087 14.7744 27.6548 14.8779 27.8363 15.0621C28.0177 15.2464 28.1197 15.4963 28.1197 15.7568C28.1197 16.0174 28.0177 16.2673 27.8363 16.4515C27.6548 16.6358 27.4087 16.7393 27.1521 16.7393H25.5545C25.2979 16.7393 25.0518 16.6358 24.8703 16.4515C24.6889 16.2673 24.5869 16.0174 24.5869 15.7568C24.5869 15.4963 24.6889 15.2464 24.8703 15.0621C25.0518 14.8779 25.2979 14.7744 25.5545 14.7744ZM25.725 19.0008C25.7242 19.2616 25.6215 19.5115 25.4395 19.6956C25.2576 19.8798 25.0112 19.9832 24.7543 19.9832H23.1568C22.9002 19.9832 22.654 19.8797 22.4725 19.6955C22.291 19.5112 22.1891 19.2613 22.1891 19.0008C22.1891 18.7402 22.291 18.4903 22.4725 18.3061C22.654 18.1218 22.9002 18.0183 23.1568 18.0183H24.7543C25.0112 18.0183 25.2576 18.1217 25.4395 18.3059C25.6215 18.49 25.7242 18.7399 25.725 19.0008ZM20.762 14.7744H22.3565C22.6131 14.7744 22.8592 14.8779 23.0407 15.0621C23.2221 15.2464 23.3241 15.4963 23.3241 15.7568C23.3241 16.0174 23.2221 16.2673 23.0407 16.4515C22.8592 16.6358 22.6131 16.7393 22.3565 16.7393H20.762C20.5054 16.7393 20.2593 16.6358 20.0778 16.4515C19.8963 16.2673 19.7944 16.0174 19.7944 15.7568C19.7944 15.4963 19.8963 15.2464 20.0778 15.0621C20.2593 14.8779 20.5054 14.7744 20.762 14.7744ZM15.0018 15.7568C15.0018 15.4963 15.1038 15.2464 15.2853 15.0621C15.4667 14.8779 15.7128 14.7744 15.9695 14.7744H17.57C17.8267 14.7744 18.0728 14.8779 18.2542 15.0621C18.4357 15.2464 18.5376 15.4963 18.5376 15.7568C18.5376 16.0174 18.4357 16.2673 18.2542 16.4515C18.0728 16.6358 17.8267 16.7393 17.57 16.7393H15.9755C15.7189 16.7393 15.4728 16.6358 15.2913 16.4515C15.1099 16.2673 15.0079 16.0174 15.0079 15.7568H15.0018ZM17.4026 19.0008C17.4026 18.7402 17.5046 18.4903 17.6861 18.3061C17.8675 18.1218 18.1136 18.0183 18.3703 18.0183H19.9678C20.2244 18.0183 20.4706 18.1218 20.6521 18.3061C20.8335 18.4903 20.9355 18.7402 20.9355 19.0008C20.9355 19.2613 20.8335 19.5112 20.6521 19.6955C20.4706 19.8797 20.2244 19.9832 19.9678 19.9832H18.3703C18.1139 19.9824 17.8682 19.8786 17.6869 19.6946C17.5057 19.5105 17.4034 19.2611 17.4026 19.0008ZM28.7557 23.2271H19.1675C18.9109 23.2271 18.6648 23.1236 18.4833 22.9394C18.3019 22.7551 18.1999 22.5053 18.1999 22.2447C18.1999 21.9841 18.3019 21.7342 18.4833 21.55C18.6648 21.3658 18.9109 21.2622 19.1675 21.2622H28.7557C29.0123 21.2622 29.2584 21.3658 29.4399 21.55C29.6213 21.7342 29.7233 21.9841 29.7233 22.2447C29.7233 22.5053 29.6213 22.7551 29.4399 22.9394C29.2584 23.1236 29.0123 23.2271 28.7557 23.2271ZM29.5529 19.9832H27.9553C27.6987 19.9832 27.4526 19.8797 27.2711 19.6955C27.0897 19.5112 26.9877 19.2613 26.9877 19.0008C26.9877 18.7402 27.0897 18.4903 27.2711 18.3061C27.4526 18.1218 27.6987 18.0183 27.9553 18.0183H29.5529C29.8095 18.0183 30.0557 18.1218 30.2371 18.3061C30.4186 18.4903 30.5206 18.7402 30.5206 19.0008C30.5206 19.2613 30.4186 19.5112 30.2371 19.6955C30.0557 19.8797 29.8095 19.9832 29.5529 19.9832ZM31.9507 16.7393H30.3501C30.0935 16.7393 29.8474 16.6358 29.6659 16.4515C29.4845 16.2673 29.3825 16.0174 29.3825 15.7568C29.3825 15.4963 29.4845 15.2464 29.6659 15.0621C29.8474 14.8779 30.0935 14.7744 30.3501 14.7744H31.9476C32.2043 14.7744 32.4504 14.8779 32.6319 15.0621C32.8133 15.2464 32.9153 15.4963 32.9153 15.7568C32.9153 16.0174 32.8133 16.2673 32.6319 16.4515C32.4504 16.6358 32.2043 16.7393 31.9476 16.7393" fill="#5A2E91"/>
<path d="M33.7487 3.6852V6.16593H32.5771V2.29688H15.34V6.16593H14.1684V3.6852H12.1445V6.16593V7.9698V10.4474H14.1684V7.9698H15.34V11.8672H32.5771V7.9698H33.7487V10.4474H35.7695V7.9698V6.16593V3.6852H33.7487Z" fill="#5A2E91"/>
<defs>
<linearGradient id="paint0_linear" x1="23.6813" y1="30.2242" x2="23.683" y2="45.3028" gradientUnits="userSpaceOnUse">
<stop stop-color="#2A5BA6"/>
<stop offset="1" stop-color="#E2127E"/>
</linearGradient>
</defs>
</svg>

<svg width="48" height="49" fill="none" xmlns="http://www.w3.org/2000/svg"><path d="M47.359 40.237l-.023-.023.026-.034-.67-.574-4.666-4.418s-.082.088-.217.222l-.124.138c-1.061 1.018-4.477 3.954-8.483 4.008h-.255c-2.11-.233-4.166-1.39-6.247-3.53-3.461-3.552-7.309-5.478-11.452-5.742h-.345a14.67 14.67 0 00-1.876-.05c-6.24.26-10.874 4.533-12.45 6.18-.33.317-.532.535-.573.581l.026.023-.03.03.671.579 4.669 4.425s.083-.088.218-.218l.123-.138c1.065-1.014 4.478-3.95 8.483-4.008h.258c2.108.237 4.163 1.39 6.248 3.53 3.461 3.552 7.305 5.477 11.449 5.742h.345c.623.056 1.25.073 1.875.05 6.236-.26 10.875-4.53 12.446-6.175.33-.318.536-.54.574-.582" fill="url(#paint0_linear)"/><path d="M34.51 12.507a.993.993 0 01-.285.694.964.964 0 01-.683.288h-19.17a.96.96 0 01-.684-.288.99.99 0 01-.284-.694v-.64h-1.26V24.5H35.77V11.867h-1.26v.64zm-8.955 2.267h1.597a.96.96 0 01.684.288.99.99 0 010 1.39.96.96 0 01-.684.287h-1.598a.96.96 0 01-.684-.288.99.99 0 010-1.389.96.96 0 01.684-.288zm.17 4.227c0 .26-.104.51-.286.695a.963.963 0 01-.685.287h-1.597a.96.96 0 01-.684-.288.99.99 0 010-1.389.96.96 0 01.684-.288h1.597c.257 0 .504.104.685.288a.993.993 0 01.286.695zm-4.963-4.227h1.595a.96.96 0 01.684.288.99.99 0 010 1.39.96.96 0 01-.684.287h-1.595a.96.96 0 01-.684-.288.99.99 0 010-1.389.96.96 0 01.684-.288zm-5.76.983c0-.26.102-.51.283-.695a.96.96 0 01.684-.288h1.601a.96.96 0 01.684.288.99.99 0 010 1.39.96.96 0 01-.684.287h-1.595a.96.96 0 01-.684-.288.99.99 0 01-.283-.694h-.006zm2.4 3.244c0-.26.103-.51.284-.695a.96.96 0 01.684-.288h1.598a.96.96 0 01.684.288.99.99 0 010 1.39.96.96 0 01-.684.287H18.37a.964.964 0 01-.683-.288.994.994 0 01-.284-.694zm11.354 4.226h-9.588a.96.96 0 01-.685-.288.99.99 0 010-1.389.96.96 0 01.684-.288h9.589a.96.96 0 01.684.288.99.99 0 010 1.39.96.96 0 01-.684.287zm.797-3.244h-1.598a.96.96 0 01-.684-.288.99.99 0 010-1.389.96.96 0 01.684-.288h1.598a.96.96 0 01.684.288.99.99 0 010 1.39.96.96 0 01-.684.287zm2.398-3.244h-1.6a.96.96 0 01-.685-.288.99.99 0 010-1.389.96.96 0 01.684-.288h1.598a.96.96 0 01.684.288.99.99 0 010 1.39.96.96 0 01-.684.287m1.801-13.054v2.48h-1.172V2.298H15.34v3.869h-1.172v-2.48h-2.023v6.759h2.023V7.97h1.172v3.897h17.237V7.97h1.172v2.477h2.02V3.686h-2.02z" fill="#5A2E91"/><defs><linearGradient id="paint0_linear" x1="23.681" y1="30.224" x2="23.683" y2="45.303" gradientUnits="userSpaceOnUse"><stop stop-color="#2A5BA6"/><stop offset="1" stop-color="#E2127E"/></linearGradient></defs></svg>
